assets/images/icon-resume.svg

<?xml version="1.0" encoding="UTF-8" standalone="no"?>
<svg width="27px" height="32px" viewBox="0 0 27 32" version="1.1" xmlns="http://www.w3.org/2000/svg" xmlns:xlink="http://www.w3.org/1999/xlink">
    <!-- Generator: Sketch 45 (43475) - http://www.bohemiancoding.com/sketch -->
    <title>resume</title>
    <desc>Created with Sketch.</desc>
    <defs></defs>
    <g id="Page-1" stroke="none" stroke-width="1" fill="none" fill-rule="evenodd">
        <g id="resume" fill-rule="nonzero" fill="#454D5D">
            <path d="M25.6012441,8.30122084 C25.7640132,8.46398988 25.9267822,8.67326436 26.0895512,8.92904427 L17.8580885,8.92904427 L17.8580885,0.697581584 C18.1138685,0.86035062 18.3231429,1.02311966 18.485912,1.18588869 L25.6012441,8.30122084 Z M17.3000233,11.1613053 L26.7871328,11.1613053 L26.7871328,29.5774591 C26.7871328,30.0425135 26.6243638,30.4378098 26.2988257,30.7633478 C25.9732876,31.0888859 25.5779914,31.2516549 25.112937,31.2516549 L1.6741958,31.2516549 C1.20914141,31.2516549 0.813845181,31.0888859 0.488307108,30.7633478 C0.162769036,30.4378098 0,30.0425135 0,29.5774591 L0,1.6741958 C0,1.20914141 0.162769036,0.813845181 0.488307108,0.488307108 C0.813845181,0.162769036 1.20914141,0 1.6741958,0 L15.6258275,0 L15.6258275,9.48710954 C15.6258275,9.95216392 15.7885965,10.3474602 16.1141346,10.6729982 C16.4396727,10.9985363 16.8349689,11.1613053 17.3000233,11.1613053 Z M20.0903496,23.9968065 L20.0903496,22.8806759 C20.0903496,22.7179069 20.038031,22.5842038 19.9333937,22.4795665 C19.8287565,22.3749293 19.6950534,22.3226107 19.5322843,22.3226107 L7.25484847,22.3226107 C7.09207943,22.3226107 6.9583763,22.3749293 6.85373906,22.4795665 C6.74910182,22.5842038 6.6967832,22.7179069 6.6967832,22.8806759 L6.6967832,23.9968065 C6.6967832,24.1595755 6.74910182,24.2932786 6.85373906,24.3979159 C6.9583763,24.5025531 7.09207943,24.5548717 7.25484847,24.5548717 L19.5322843,24.5548717 C19.6950534,24.5548717 19.8287565,24.5025531 19.9333937,24.3979159 C20.038031,24.2932786 20.0903496,24.1595755 20.0903496,23.9968065 Z M20.0903496,19.5322843 L20.0903496,18.4161538 C20.0903496,18.2533848 20.038031,18.1196816 19.9333937,18.0150444 C19.8287565,17.9104072 19.6950534,17.8580885 19.5322843,17.8580885 L7.25484847,17.8580885 C7.09207943,17.8580885 6.9583763,17.9104072 6.85373906,18.0150444 C6.74910182,18.1196816 6.6967832,18.2533848 6.6967832,18.4161538 L6.6967832,19.5322843 C6.6967832,19.6950534 6.74910182,19.8287565 6.85373906,19.9333937 C6.9583763,20.038031 7.09207943,20.0903496 7.25484847,20.0903496 L19.5322843,20.0903496 C19.6950534,20.0903496 19.8287565,20.038031 19.9333937,19.9333937 C20.038031,19.8287565 20.0903496,19.6950534 20.0903496,19.5322843 Z M20.0903496,15.0677622 L20.0903496,13.9516317 C20.0903496,13.7888626 20.038031,13.6551595 19.9333937,13.5505223 C19.8287565,13.445885 19.6950534,13.3935664 19.5322843,13.3935664 L7.25484847,13.3935664 C7.09207943,13.3935664 6.9583763,13.445885 6.85373906,13.5505223 C6.74910182,13.6551595 6.6967832,13.7888626 6.6967832,13.9516317 L6.6967832,15.0677622 C6.6967832,15.2305312 6.74910182,15.3642344 6.85373906,15.4688716 C6.9583763,15.5735089 7.09207943,15.6258275 7.25484847,15.6258275 L19.5322843,15.6258275 C19.6950534,15.6258275 19.8287565,15.5735089 19.9333937,15.4688716 C20.038031,15.3642344 20.0903496,15.2305312 20.0903496,15.0677622 Z" id="Shape"></path>
        </g>
    </g>
</svg>

<?xml version="1.0" encoding="utf-8"?>
<!-- Generator: Adobe Illustrator 16.0.4, SVG Export Plug-In . SVG Version: 6.00 Build 0)  -->
<!DOCTYPE svg PUBLIC "-//W3C//DTD SVG 1.1//EN" "http://www.w3.org/Graphics/SVG/1.1/DTD/svg11.dtd">
<svg version="1.1" id="Layer_1" xmlns="http://www.w3.org/2000/svg" xmlns:xlink="http://www.w3.org/1999/xlink" x="0px" y="0px"
	 width="27px" height="32px" viewBox="0 0 27 32" enable-background="new 0 0 27 32" xml:space="preserve">
<title>resume</title>
<desc>Created with Sketch.</desc>
<g id="Page-1">
	<g id="resume">
		<path id="Shape" fill="#2D2D2D" d="M25.602,8.301c0.162,0.163,0.325,0.372,0.488,0.628h-8.232V0.698
			c0.256,0.163,0.466,0.325,0.629,0.488L25.602,8.301z M17.3,11.161h9.487v18.417c0,0.465-0.162,0.859-0.488,1.186
			c-0.326,0.325-0.721,0.488-1.186,0.488H1.674c-0.465,0-0.86-0.163-1.186-0.488C0.163,30.438,0,30.043,0,29.578V1.674
			c0-0.465,0.163-0.86,0.488-1.186S1.209,0,1.674,0h13.952v9.487c0,0.465,0.163,0.86,0.488,1.186
			C16.439,10.999,16.835,11.161,17.3,11.161z M20.09,23.997v-1.116c0-0.163-0.052-0.297-0.156-0.401
			c-0.105-0.104-0.238-0.157-0.401-0.157H7.255c-0.163,0-0.296,0.053-0.401,0.157c-0.104,0.104-0.157,0.238-0.157,0.401v1.116
			c0,0.163,0.052,0.296,0.157,0.401c0.105,0.104,0.239,0.156,0.401,0.156h12.277c0.163,0,0.296-0.053,0.401-0.156
			C20.038,24.293,20.09,24.16,20.09,23.997z M20.09,19.532v-1.116c0-0.162-0.052-0.297-0.156-0.4
			c-0.105-0.105-0.238-0.158-0.401-0.158H7.255c-0.163,0-0.296,0.053-0.401,0.158c-0.104,0.104-0.157,0.238-0.157,0.4v1.116
			c0,0.163,0.052,0.296,0.157,0.401c0.105,0.104,0.239,0.156,0.401,0.156h12.277c0.163,0,0.296-0.052,0.401-0.156
			C20.038,19.828,20.09,19.695,20.09,19.532z M20.09,15.068v-1.116c0-0.163-0.052-0.296-0.156-0.401
			c-0.105-0.105-0.238-0.157-0.401-0.157H7.255c-0.163,0-0.296,0.052-0.401,0.157c-0.104,0.104-0.157,0.238-0.157,0.401v1.116
			c0,0.163,0.052,0.296,0.157,0.401c0.105,0.104,0.239,0.157,0.401,0.157h12.277c0.163,0,0.296-0.053,0.401-0.157
			C20.038,15.364,20.09,15.23,20.09,15.068z"/>
	</g>
</g>
</svg>
